tools/download-figma-icons/icons/solid/townhall-alt.svg

<svg width="24" height="24" viewBox="0 0 24 24" fill="none" xmlns="http://www.w3.org/2000/svg">
<path fill-rule="evenodd" clip-rule="evenodd" d="M1.55365 1.22146C1.66754 0.936713 1.94333 0.75 2.25 0.75H12.75C13.0567 0.75 13.3325 0.936713 13.4464 1.22146L14.9464 4.97146C15.0388 5.20253 15.0106 5.46439 14.8711 5.67047C14.7315 5.87655 14.4989 6 14.25 6H13.5H10.3242L7.8721 4.59882C7.64153 4.46706 7.35847 4.46706 7.1279 4.59882L4.67583 6H1.5H0.750004C0.501136 6 0.268476 5.87655 0.128953 5.67047C-0.0105694 5.46439 -0.0387812 5.20253 0.053646 4.97146L1.55365 1.22146ZM10.125 7.5H13.5V8.25H21.75C22.0728 8.25 22.3594 8.45657 22.4615 8.76283L23.9615 13.2628C24.0378 13.4915 23.9994 13.743 23.8584 13.9385C23.7175 14.1341 23.4911 14.25 23.25 14.25H22.5V22.5C22.5 22.9142 22.1642 23.25 21.75 23.25H12.75H10.5V18.6618C10.5 18.4036 10.3673 18.1637 10.1486 18.0265L7.89862 16.6147C7.65488 16.4618 7.34512 16.4618 7.10138 16.6147L4.85138 18.0265C4.63274 18.1637 4.5 18.4036 4.5 18.6618V23.25H2.25C1.83579 23.25 1.5 22.9142 1.5 22.5V7.5H4.875C5.00552 7.5 5.13378 7.46594 5.2471 7.40118L7.5 6.11381L9.7529 7.40118C9.86622 7.46594 9.99448 7.5 10.125 7.5ZM10.5 12C10.5 13.6569 9.15685 15 7.5 15C5.84315 15 4.5 13.6569 4.5 12C4.5 10.3431 5.84315 9 7.5 9C9.15685 9 10.5 10.3431 10.5 12ZM19.5 17.5C19.5 17.9142 19.1642 18.25 18.75 18.25H15.75C15.3358 18.25 15 17.9142 15 17.5C15 17.0858 15.3358 16.75 15.75 16.75H18.75C19.1642 16.75 19.5 17.0858 19.5 17.5ZM8.25 11C8.25 10.5858 7.91421 10.25 7.5 10.25C7.08579 10.25 6.75 10.5858 6.75 11V12C6.75 12.4142 7.08579 12.75 7.5 12.75H8.5C8.91421 12.75 9.25 12.4142 9.25 12C9.25 11.5858 8.91421 11.25 8.5 11.25H8.25V11Z" fill="black"/>
</svg>

<svg xmlns="http://www.w3.org/2000/svg" width="24" height="24" fill="none" viewBox="0 0 24 24"><path fill="currentColor" fill-rule="evenodd" d="M1.554 1.221A.75.75 0 0 1 2.25.75h10.5a.75.75 0 0 1 .696.471l1.5 3.75A.75.75 0 0 1 14.25 6h-3.926L7.872 4.599a.75.75 0 0 0-.744 0L4.676 6H.75a.75.75 0 0 1-.696-1.029zM10.125 7.5H13.5v.75h8.25a.75.75 0 0 1 .712.513l1.5 4.5a.75.75 0 0 1-.712.987h-.75v8.25a.75.75 0 0 1-.75.75H10.5v-4.588a.75.75 0 0 0-.351-.636l-2.25-1.411a.75.75 0 0 0-.798 0l-2.25 1.412a.75.75 0 0 0-.351.635v4.588H2.25a.75.75 0 0 1-.75-.75v-15h3.375a.75.75 0 0 0 .372-.099L7.5 6.114 9.753 7.4a.75.75 0 0 0 .372.099M10.5 12a3 3 0 1 1-6 0 3 3 0 0 1 6 0m9 5.5a.75.75 0 0 1-.75.75h-3a.75.75 0 0 1 0-1.5h3a.75.75 0 0 1 .75.75M8.25 11a.75.75 0 0 0-1.5 0v1c0 .414.336.75.75.75h1a.75.75 0 0 0 0-1.5h-.25z" clip-rule="evenodd"/></svg>
